style/gewonnen.svg

<svg xmlns="http://www.w3.org/2000/svg" viewBox="0 0 70.95 110.26"><path d="M.23 20.57h8.5v89.69h-8.5zm62.22.37h8.5v44.29h-8.5z"/><path d="M78.59 49a19.62 19.62 0 0 1-19.59-19.63h8.5a11.09 11.09 0 0 0 22.18 0h8.5a19.62 19.62 0 0 1-19.59 19.63zm-11.1-21h-8.49a11.09 11.09 0 0 0-22.18 0h-8.52a19.59 19.59 0 0 1 39.19 0zm11.1 67.44a19.62 19.62 0 0 1-19.59-19.59h8.5a11.09 11.09 0 1 0 22.18 0h8.5a19.62 19.62 0 0 1-19.59 19.59zm-11.1-20.94h-8.49a11.09 11.09 0 1 0-22.18 0h-8.52a19.59 19.59 0 1 1 39.19 0z" transform="translate(-28.3 -8.43)"/><path stroke="#000" stroke-miterlimit="10" stroke-width="10" d="M12.7 8.94v10m9.75 0v10m8-20v10m-18 9.1v10m10.25.05v10m8.75-19.05v10m10.62.25v10m-8.35-.31v10m18.04-11v10m9.06-18.69v10m-.37 8.4v10m-18.38-11v10m9.69 0v10m-7.69-2.5v7.63" fill="none"/></svg>

<svg xmlns="http://www.w3.org/2000/svg" viewBox="0 0 70.95 110.26"><title>KdG_icon-functioneel-vlag</title><path fill="#181716" d="M.23 20.57h8.5v89.69h-8.5zM62.45 20.94h8.5v44.29h-8.5z"/><path d="M78.59 49a19.62 19.62 0 0 1-19.59-19.63h8.5a11.09 11.09 0 0 0 22.18 0h8.5a19.62 19.62 0 0 1-19.59 19.63zM67.49 28h-8.49a11.09 11.09 0 0 0-22.18 0h-8.52a19.59 19.59 0 0 1 39.19 0zM78.59 95.44a19.62 19.62 0 0 1-19.59-19.59h8.5a11.09 11.09 0 1 0 22.18 0h8.5a19.62 19.62 0 0 1-19.59 19.59zM67.49 74.5h-8.49a11.09 11.09 0 1 0-22.18 0h-8.52a19.59 19.59 0 1 1 39.19 0z" transform="translate(-28.3 -8.43)" fill="#181716"/><path stroke="#181716" stroke-miterlimit="10" stroke-width="10" fill="none" d="M12.7 8.94v10M22.45 18.94v10M30.45 8.94v10M12.45 28.04v10M22.7 38.09v10M31.45 29.04v10M42.07 39.29v10M33.72 48.98v10M51.76 47.98v10M60.82 39.29v10M60.45 57.69v10M42.07 56.69v10M51.76 66.69v10M44.07 74.19v7.63"/></svg>
